X:272
T: Dunbarton's Drums
N: O'Farrell's Pocket Companion v.3 (Sky ed. p.125)
N: "Scotch"
M: C
L: 1/8
R: blank
Q: 280
K: Dm
FG| A3BAcGA| F2c2c2 BA|GFGA BAGF| D2d4 cd|f3g agfd|
cAcd f3A| GAfd cAGF| D2d2d2 :|cd| f3g fgag| f2a2a2 gf|
gfga bagf|d2 ga g2 fd| cdfg agfd| cAcd f3g| agfd cAGF|
D2d2d2 :|
